Sources/FrostedUI/Resources/Icons.xcassets/sun12.imageset/sun-12.svg

<svg width="12" height="12" viewBox="0 0 12 12" fill="none" xmlns="http://www.w3.org/2000/svg" data-fui-icon="true">
  <path
    d="M6 9.5C6.41421 9.5 6.75 9.83579 6.75 10.25V11.25C6.75 11.6642 6.41421 12 6 12C5.58579 12 5.25 11.6642 5.25 11.25V10.25C5.25 9.83579 5.58579 9.5 6 9.5ZM2.46484 8.47461C2.75774 8.18204 3.23259 8.18188 3.52539 8.47461C3.81818 8.7674 3.81798 9.24224 3.52539 9.53516L2.81836 10.2432C2.5256 10.5358 2.0507 10.5356 1.75781 10.2432C1.46492 9.95027 1.46492 9.47453 1.75781 9.18164L2.46484 8.47461ZM8.47461 8.47461C8.7674 8.18182 9.24224 8.18201 9.53516 8.47461L10.2422 9.18164C10.5351 9.47453 10.5351 9.94929 10.2422 10.2422C9.94929 10.5351 9.47453 10.5351 9.18164 10.2422L8.47461 9.53516C8.18201 9.24224 8.18181 8.7674 8.47461 8.47461ZM6 3C7.65685 3 9 4.34315 9 6C9 7.65685 7.65685 9 6 9C4.34315 9 3 7.65685 3 6C3 4.34315 4.34315 3 6 3ZM6 4.5C5.17157 4.5 4.5 5.17157 4.5 6C4.5 6.82843 5.17157 7.5 6 7.5C6.82843 7.5 7.5 6.82843 7.5 6C7.5 5.17157 6.82843 4.5 6 4.5ZM1.75 5.25C2.16421 5.25 2.5 5.58579 2.5 6C2.5 6.41421 2.16421 6.75 1.75 6.75H0.75C0.335789 6.75 1.5542e-07 6.41421 0 6C2.59185e-07 5.58579 0.335789 5.25 0.75 5.25H1.75ZM11.25 5.25C11.6642 5.25 12 5.58579 12 6C12 6.41421 11.6642 6.75 11.25 6.75H10.25C9.83579 6.75 9.5 6.41421 9.5 6C9.5 5.58579 9.83579 5.25 10.25 5.25H11.25ZM1.75684 1.75684C2.04971 1.46396 2.52546 1.46399 2.81836 1.75684L3.52539 2.46484C3.81792 2.75777 3.81816 3.23262 3.52539 3.52539C3.23262 3.81816 2.75777 3.81792 2.46484 3.52539L1.75684 2.81836C1.46399 2.52546 1.46396 2.04971 1.75684 1.75684ZM9.18164 1.75781C9.47453 1.46492 9.94929 1.46492 10.2422 1.75781C10.5351 2.05071 10.5351 2.52547 10.2422 2.81836L9.53516 3.52539C9.24224 3.81799 8.7674 3.81819 8.47461 3.52539C8.18182 3.2326 8.18201 2.75776 8.47461 2.46484L9.18164 1.75781ZM6 0C6.41421 2.35949e-07 6.75 0.335789 6.75 0.75V1.75C6.75 2.16421 6.41421 2.5 6 2.5C5.58579 2.5 5.25 2.16421 5.25 1.75V0.75C5.25 0.335789 5.58579 1.37314e-07 6 0Z"
    fill="currentColor"
  />
</svg>

<svg xmlns="http://www.w3.org/2000/svg" width="12" height="12" fill="none" data-fui-icon="true" viewBox="0 0 12 12"><path fill="currentColor" d="M6 9.5a.75.75 0 0 1 .75.75v1a.75.75 0 0 1-1.5 0v-1A.75.75 0 0 1 6 9.5M2.465 8.475a.75.75 0 0 1 1.06 1.06l-.707.708a.75.75 0 0 1-1.06-1.061zm6.01 0a.75.75 0 0 1 1.06 0l.707.707a.75.75 0 1 1-1.06 1.06l-.707-.707a.75.75 0 0 1 0-1.06M6 3a3 3 0 1 1 0 6 3 3 0 0 1 0-6m0 1.5a1.5 1.5 0 1 0 0 3 1.5 1.5 0 0 0 0-3m-4.25.75a.75.75 0 0 1 0 1.5h-1a.75.75 0 0 1 0-1.5zm9.5 0a.75.75 0 0 1 0 1.5h-1a.75.75 0 0 1 0-1.5zM1.757 1.757a.75.75 0 0 1 1.061 0l.707.708a.75.75 0 0 1-1.06 1.06l-.708-.707a.75.75 0 0 1 0-1.061m7.425 0a.75.75 0 1 1 1.06 1.061l-.707.707a.75.75 0 0 1-1.06-1.06zM6 0a.75.75 0 0 1 .75.75v1a.75.75 0 0 1-1.5 0v-1A.75.75 0 0 1 6 0"/></svg>
